icons/ron.svg

<svg width="16" height="16" viewBox="0 0 16 16" fill="none" xmlns="http://www.w3.org/2000/svg">
<path fill-rule="evenodd" clip-rule="evenodd" d="M14 10.49L13.26 9.09V9.01L14.5 8L13.28 7V6.92L14 5.51L12.49 5H12.44L12.6 3.4L11 3.56V3.51L10.49 2L9.09 2.74H9L8 1.5L7 2.72H6.91L5.51 2L5 3.51V3.56L3.4 3.4L3.56 5H3.51L2 5.51L2.74 6.91V6.99L1.5 8L2.72 9V9.08L2 10.49L3.51 11L3.56 11.06L3.4 12.6L5 12.44L5.06 12.49L5.51 14L6.91 13.26H7L8 14.5L9 13.28H9.08L10.48 14.02L11 12.49L11.06 12.44L12.64 12.6L12.44 11L12.49 10.94L14 10.49ZM5.58285 4.79423C5.89443 4.56989 6.25332 4.5 6.5 4.5H7.5V5.5H6.5C6.41334 5.5 6.27223 5.53011 6.16715 5.60577C6.08757 5.66307 6 5.76296 6 6L6 7C6 7.24668 5.93011 7.60557 5.70577 7.91715C5.6854 7.94544 5.66392 7.97309 5.64133 8C5.66392 8.02691 5.6854 8.05456 5.70577 8.08285C5.93011 8.39443 6 8.75332 6 9V10C6 10.0867 6.03011 10.2278 6.10577 10.3328C6.16307 10.4124 6.26296 10.5 6.5 10.5H7.5L7.5 11.5H6.5C5.93704 11.5 5.53693 11.2542 5.29423 10.9172C5.06989 10.6056 5 10.2467 5 10V9C5 8.91335 4.96989 8.77223 4.89423 8.66715C4.83693 8.58757 4.73704 8.5 4.5 8.5H4V7.5H4.5C4.73704 7.5 4.83693 7.41243 4.89423 7.33285C4.96989 7.22777 5 7.08666 5 7L5 6C5 5.43704 5.24576 5.03693 5.58285 4.79423ZM9.5 11.5C9.74668 11.5 10.1056 11.4301 10.4172 11.2058C10.7542 10.9631 11 10.563 11 10L11 9C11 8.91335 11.0301 8.77223 11.1058 8.66715C11.1631 8.58757 11.263 8.5 11.5 8.5H12V7.5H11.5C11.263 7.5 11.1631 7.41243 11.1058 7.33285C11.0301 7.22777 11 7.08666 11 7V6C11 5.75332 10.9301 5.39443 10.7058 5.08285C10.4631 4.74577 10.063 4.5 9.5 4.5H8.5V5.5L9.5 5.5C9.73704 5.5 9.83693 5.58757 9.89423 5.66715C9.96989 5.77223 10 5.91335 10 6V7C10 7.24668 10.0699 7.60557 10.2942 7.91715C10.3146 7.94544 10.3361 7.97309 10.3587 8C10.3361 8.02691 10.3146 8.05456 10.2942 8.08285C10.0699 8.39443 10 8.75332 10 9V10C10 10.237 9.91243 10.3369 9.83285 10.3942C9.72777 10.4699 9.58666 10.5 9.5 10.5H8.5V11.5H9.5ZM9 8C9 8.55229 8.55229 9 8 9C7.44772 9 7 8.55229 7 8C7 7.44772 7.44772 7 8 7C8.55229 7 9 7.44772 9 8Z" fill="#D83F35"/>
</svg>

<svg xmlns="http://www.w3.org/2000/svg" width="16" height="16" fill="none" viewBox="0 0 16 16"><path fill="#D83F35" fill-rule="evenodd" d="m14 10.49-.74-1.4v-.08L14.5 8l-1.22-1v-.08L14 5.51 12.49 5h-.05l.16-1.6-1.6.16v-.05L10.49 2l-1.4.74H9L8 1.5 7 2.72h-.09L5.51 2 5 3.51v.05L3.4 3.4 3.56 5h-.05L2 5.51l.74 1.4v.08L1.5 8l1.22 1v.08L2 10.49l1.51.51.05.06-.16 1.54 1.6-.16.06.05.45 1.51 1.4-.74H7l1 1.24 1-1.22h.08l1.4.74.52-1.53.06-.05 1.58.16-.2-1.6.05-.06zM5.583 4.794c.311-.224.67-.294.917-.294h1v1h-1a.6.6 0 0 0-.333.106C6.087 5.663 6 5.763 6 6v1a1.6 1.6 0 0 1-.359 1q.034.04.065.083C5.93 8.394 6 8.753 6 9v1c0 .087.03.228.106.333.057.08.157.167.394.167h1v1h-1c-.563 0-.963-.246-1.206-.583A1.6 1.6 0 0 1 5 10V9a.6.6 0 0 0-.106-.333c-.057-.08-.157-.167-.394-.167H4v-1h.5c.237 0 .337-.088.394-.167A.6.6 0 0 0 5 7V6c0-.563.246-.963.583-1.206M9.5 11.5c.247 0 .606-.07.917-.294.337-.243.583-.643.583-1.206V9c0-.087.03-.228.106-.333.057-.08.157-.167.394-.167h.5v-1h-.5c-.237 0-.337-.088-.394-.167A.6.6 0 0 1 11 7V6c0-.247-.07-.606-.294-.917-.243-.337-.643-.583-1.206-.583h-1v1h1c.237 0 .337.088.394.167A.6.6 0 0 1 10 6v1a1.62 1.62 0 0 0 .359 1l-.065.083C10.07 8.394 10 8.753 10 9v1c0 .237-.088.337-.167.394a.6.6 0 0 1-.333.106h-1v1zM9 8a1 1 0 1 1-2 0 1 1 0 0 1 2 0" clip-rule="evenodd"/></svg>
